X:3018
T:K\"ara lilla Lisen
C:anon.
O:Sweden
R:S\aanglek
Z:Transcribed by Frank Nordberg - http://www.musicaviva.com
F:http://abc.musicaviva.com/tunes/sweden/kara-lilla-lisen.abc
M:C
L:1/8
%%measurenb 1
K:C
C D E F G2 E2 | F2 D2 E2 C2 | E F G A G2 E2 | F2 D2 C4 |
G2 G2 A4 | F2 F2 G4 | E2 E2 G2 F2 | E2 D2 C4 | C2 ||


